!!!!SEGMENT: pl-wnifc--13846--017_anonim--piesni-polskie-i-ruskie-ludu-galicyjskiego-17-oj-kumme-kume-nyni-sobota.krn
!!!kernsource:
!!!cenid: 18xx:3239
!!!COM: Anonim
!!!COM-rismID:
!!!CDT:
!!!CNT:
!!!GTL: Pieśni polskie i ruskie ludu galicyjskiego
!!!OTL: 17. Oj kumme kume nyni sobota
!!!PDT: 1833
!!!AGN:
!!!SMS-siglum: PL-Wnifc
!!!SMS-shelfmark: 13846
!!!SMS-shelfwork: 017 G
!!!NIFC-rismSourceID: 1001036743
!!!NIFC-islandoraID:
!!!URL-pdf-islandora:
!!!URL-scan:
!!!ONB-nifc:
!!!AIN: 1 piano 1 vox
!!!key: C
!!!OMD: Tempo di Mazur Ballo Polacco.
**kern	**kern	**dynam	**kern	**text	**dynam
*part2	*part2	*part2	*part1	*part1	*
*staff3	*staff2	*	*staff1	*staff1	*
*I"FORTEPIAN.	*I"FORTEPIAN.	*	*I"GŁOS.	*	*
*Ipiano	*Ipiano	*	*Ivox	*	*
*ICklav	*ICklav	*	*ICvox	*	*
*IGacmp	*IGacmp	*	*IGsolo	*	*
*clefF4	*clefG2	*	*clefG2	*	*
*k[]	*k[]	*	*k[]	*	*
*C:	*C:	*	*C:	*	*
*M3/8	*M3/8	*	*M3/8	*	*
=1-	=1-	=1-	=1-	=1-	=1-
!	!	!	!LO:TX:a:t= D.a.I.	!	!
8CC/L	8cc/L 8e/	.	8cc\	Oj	.
8C/	8ee\ 8cc\	.	8.ee\	kum-	.
8C/J	8ff\J 8dd\	.	.	.	.
.	.	.	16ff\	-me	.
=2	=2	=2	=2	=2	=2
8CC/L	8aa\ 8ff\	.	8aa\	ku-	.
!	!	!	!	!	!LO:DY:b
8C/	4gg\ 4ee\^	sf	4gg\	-me	sf
8C/J	.	.	.	.	.
=3	=3	=3	=3	=3	=3
*	*^	*	*	*	*
8GG/ 8GGG/	8gg/L 8g/	8g\	.	8gg\	ny-	.
(8d\L 8B\	8.ff/^	4g\	sf	8.ff\	-ni	.
8B\J 8G\)	.	.	.	.	.	.
.	16dd/Jk	.	.	16dd\	so-	.
!!LO:LB:g=original
=4	=4	=4	=4	=4	=4	=4
8C/ 8CC/	8ff/	8g\	.	8ff\	-bo-	.
(8e\L 8c\	4ee/	4g\	.	4ee\	-ta,	.
8G\J)	.	.	.	.	.	.
*	*v	*v	*	*	*	*
=5	=5	=5	=5	=5	=5
8CC/L	8cc/ 8g/ 8e/	.	8cc\	za-	.
8C/	8.ee\L 8.cc\	.	8.ee\	-kiń-	.
8C/J	.	.	.	.	.
.	16ff\Jk 16dd\	.	16ff\	-czy-	.
=6	=6	=6	=6	=6	=6
8CC/L	8aa\ 8ff\	.	8aa\	-ła	.
8C/	4gg\ 4ee\	sf	4gg\	sia	.
8c\J	.	.	.	.	.
=7	=7	=7	=7	=7	=7
*	*^	*	*	*	*
8GG/ 8GGG/	8gg/	8g\	.	8gg\	na-	.
!	!	!	!LO:DY:b=2	!	!	!
(8d\L 8B\	8.ff/L	4g\	sf	8.ff\	-sza	.
8G\J)	.	.	.	.	.	.
.	16dd/Jk	.	.	16dd\	ro-	.
!!LO:PB:g=original
=8	=8	=8	=8	=8	=8	=8
8CC/	8ff/	8g\	.	8ff\	-bo-	.
(8e\L	4ee/	4g\	.	4ee\	-ta	.
8G\J)	.	.	.	.	.	.
==9	==9	==9	==9	==9	==9	==9
8GGG/	(8gg/L	4g\	.	8gg\	Ko-	.
(8d\L 8B\	8ff/)	.	.	8ff\	-ły-	.
8G\J)	8dd/J|	8g\	.	8dd\	-śmo	.
=10	=10	=10	=10	=10	=10	=10
8CC/	4cc/	4g\	.	4cc\	wi-	.
(8e\L 8c\	.	.	.	.	.	.
8G\J)	8ee/	8g\	.	8ee\	-lni	.
=11	=11	=11	=11	=11	=11	=11
8GGG/	8gg/L	(4g\	.	8gg\	a	.
(8d\L 8B\	8ff/)	.	.	8ff\	szczoż	.
8G\J)	8dd/J|	8g\	.	8dd\	ro-	.
!!LO:LB:g=original
=12	=12	=12	=12	=12	=12	=12
8CC/	8ff/	8g\	.	8ff\	-by-	.
(8e\L 8c\	4ee/	4g\	.	4ee\	-ty	.
8G\J)	.	.	.	.	.	.
=13	=13	=13	=13	=13	=13	=13
8GGG/	8gg/L	4g\	.	8gg\	po-	.
(8d\L 8B\	8ff/	.	.	8ff\	-ti-	.
8G\J)	8dd/J	8g\	.	8dd\	-szmo	.
=14	=14	=14	=14	=14	=14	=14
8CC/	4cc/	4g\	.	4cc\	bi-	.
(8e\L 8c\	.	.	.	.	.	.
8G\J)	8ee/	8g\	.	8ee\	-du	.
!!LO:LB:g=original
=15	=15	=15	=15	=15	=15	=15
8GGG/	8gg/L	8g\	.	8gg\	cho-	.
(8d\L 8B\	8.ff/J	4g\	.	8.ff\	-di-	.
8G\J)	.	.	.	.	.	.
.	16b/	.	.	16b\	-mo	.
*	*v	*v	*	*	*	*
=16	=16	=16	=16	=16	=16
(8G\L 8C\	8dd/L 8f/	.	8dd\	py-	.
8c\J 8C\)	8cc/J 8e/	.	8cc\	-ty	.
8r	8r	.	8r	.	.
==	==	==	==	==	==
*-	*-	*-	*-	*-	*-
!!!system-decoration: s1{(s2,s3)}
!!!RDF**kern: | = vertical stroke
!!!RDF**dynam: sf = "sf."
!!!ENC: Marta Lawrence
!!!END: 2021-11-10
